X: 1
T: Kyrkl\aat av Arne Mod\'en   [G]
C: Arne Mod\'en
S: http://www.fiolin.eu/tunes.html#kyrklat_arne_moden
Z: 2017 John Chambers <jc:trillian.mit.edu>
L: 1/16
M: 2/4
K: G
D2 |\
G6 GB | A6 AB |\
c2c2 e3c | cBBA G2GA |\
B2Bd c3B | BAAF D2FG |
A2c2 BGAF |1 G6 :|2 G4 \
|: GABc |\
d2g2 e3d | dccA F2AB |\
c2c2 d3c |
cBBA GABc |\
d2g2 e3d | dccA FDFG |\
A2Ac BGAF |1 G4 :|2 G6 |]
